svgs/firefox.svg

<svg width="24" height="24" viewBox="0 0 24 24" fill="none" xmlns="http://www.w3.org/2000/svg">
<path d="M18.5437 6.04237C19.1666 6.37073 19.9599 7.40981 20.3516 8.3722C20.9163 9.75976 21.1153 11.419 20.9362 12.9977C20.9227 13.1165 20.9105 13.235 20.8952 13.3528C20.1706 17.6946 16.4696 21 12.0122 21C7.035 21 3 16.8789 3 11.7952C3 11.7795 3.00094 11.7639 3.00094 11.7482C3.00627 11.6461 3.01229 11.544 3.01898 11.4419C3.01961 11.4328 3.02006 11.4238 3.02078 11.4147C3.03683 11.1784 3.0531 11.0266 3.07403 10.8873C3.08288 10.815 3.09249 10.7429 3.10286 10.6708C3.16399 10.2076 3.24769 9.83258 3.24986 9.82243C3.46855 8.82024 3.87952 7.8723 4.45901 7.03333C4.71101 6.66638 4.99253 6.32153 5.30063 6.00237C5.57139 5.71945 5.86611 5.46153 6.18135 5.23164C6.21574 5.20773 6.47798 5.04891 6.48225 5.06868C6.46189 5.38705 6.43665 6.9119 6.79395 7.37415H6.79812C7.32158 6.77315 8.04169 6.09247 8.96745 5.66182C8.77859 6.40058 8.78733 7.17759 8.99277 7.91171C9.07372 7.96736 9.15165 8.02746 9.2262 8.09176C9.36357 8.21074 9.51871 8.36925 9.84548 8.69812C10.457 9.31356 12.0255 9.95087 12.0288 10.0257C12.0141 10.2547 11.2221 11.0444 10.9451 11.0444C8.38234 11.0444 7.96635 12.6278 7.96635 12.6278C8.0799 13.9613 8.98868 15.0593 10.0893 15.6404C10.1395 15.6669 10.1903 15.6908 10.2412 15.7145C10.3284 15.754 10.4166 15.7908 10.5059 15.8251C10.8833 15.9616 11.2786 16.0394 11.6786 16.0561C16.1703 16.2713 17.0405 10.5708 13.799 8.91536C14.6291 8.76787 15.4908 9.10892 15.972 9.45426C15.5905 8.7738 15.0488 8.20134 14.396 7.78878C14.3594 7.76551 14.3225 7.74283 14.2853 7.72075C14.2275 7.6864 14.1691 7.65336 14.1099 7.62165C14.0832 7.6074 14.0561 7.59369 14.029 7.57996L14.0268 7.57886C13.9662 7.54798 13.905 7.51851 13.8431 7.49049C13.8034 7.47276 13.7631 7.45614 13.7229 7.43952L13.7228 7.4395C13.6733 7.41864 13.6234 7.39866 13.5731 7.37959C13.5045 7.35435 13.4352 7.33083 13.3654 7.30903C13.341 7.30129 13.317 7.29279 13.2924 7.28543C12.8722 7.16096 12.4366 7.09932 11.999 7.10244C11.9248 7.10322 11.8507 7.10592 11.7766 7.11052C11.759 7.11198 11.7414 7.11309 11.7239 7.11435C11.1847 7.15282 10.9176 7.14397 10.4288 7.37959L9.97519 6.5C10.5355 6.22848 11.142 6.07038 11.7611 6.03445C11.9747 4.69842 12.8053 3.20121 14.8092 2.0022L14.8054 2.00737C14.8075 2.00638 14.81 2.0045 14.812 2.00373L14.8165 2.00124C14.822 1.99959 14.8279 1.99959 14.8334 2.00124C14.8392 2.00199 14.8445 2.00495 14.8483 2.00951C14.8521 2.01408 14.8541 2.01993 14.8539 2.02591C14.8847 2.15214 14.9298 2.27426 14.9883 2.38983C15.019 2.45459 15.0521 2.51813 15.0875 2.58029C15.1566 2.70111 15.2275 2.81573 15.2982 2.93009L15.2998 2.93272C16.711 5.21064 18.439 6.257 19.458 8.85161L19.4563 8.83629C19.3442 8.0762 19.0507 7.0575 18.5437 6.04237Z" fill="#FFF1C0"/>
</svg>

<svg xmlns="http://www.w3.org/2000/svg" width="24" height="24" fill="none" viewBox="0 0 24 24"><path fill="#FFF1C0" d="M18.544 6.042c.623.329 1.416 1.368 1.808 2.33.564 1.388.763 3.047.584 4.626l-.04.355C20.17 17.695 16.47 21 12.011 21 7.035 21 3 16.879 3 11.795v-.047l.019-.306.002-.027a6.3 6.3 0 0 1 .053-.528c.009-.072.018-.144.029-.216.061-.463.145-.838.147-.849a7.854 7.854 0 0 1 1.209-2.789c.252-.367.534-.711.842-1.03.27-.284.565-.541.88-.771.035-.024.297-.183.301-.163-.02.318-.045 1.843.312 2.305h.004c.524-.6 1.244-1.282 2.17-1.712a4.354 4.354 0 0 0 .025 2.25c.08.055.159.115.233.18.138.119.293.277.62.606.611.616 2.18 1.253 2.183 1.328-.015.229-.807 1.018-1.084 1.018-2.563 0-2.979 1.584-2.979 1.584.114 1.333 1.023 2.431 2.123 3.012.05.027.101.05.152.074.087.04.176.077.265.111.377.137.773.214 1.173.231 4.491.215 5.362-5.485 2.12-7.14.83-.148 1.692.193 2.173.538a4.669 4.669 0 0 0-1.862-1.832l-.081-.042-.002-.001a4.41 4.41 0 0 0-.184-.089l-.12-.05a4.424 4.424 0 0 0-.358-.131l-.073-.024a4.441 4.441 0 0 0-1.515-.174l-.053.003c-.54.039-.806.03-1.295.266l-.454-.88a4.722 4.722 0 0 1 1.786-.466c.214-1.336 1.044-2.833 3.048-4.032l-.004.005.007-.003.005-.003a.03.03 0 0 1 .016 0 .024.024 0 0 1 .015.009 1.696 1.696 0 0 0 .14.38c.031.065.064.128.1.19.069.121.14.236.21.35l.002.003c1.411 2.278 3.139 3.324 4.158 5.919l-.002-.016c-.112-.76-.405-1.779-.912-2.794"/></svg>
